X: 18798
T: If We Hadn't Any Women In The World
R: barndance
M: 4/4
K: Gmajor
Bc|:dedc BAGF|EDEG DEGA|BGdG edBG|EAAG A2ge|
dedc BAGF|(3EEE EG DEGA|BGdB AGEF|(3GAG FA G2:|
Bd|:eBef g2fg|edd^c dgfe|dGBd edBG|EAAG A2ge|
dedc BAGF|(3EEE EG DEGA|BGdB AGEF|(3GAG FA G2||

